FINK
CUT[EINER FARBE EINEM GLAUBEN]
REG[Europa, Mitteleuropa, Deutschland]
KEY[F0451  16  G 4/4]
MEL[5_.4  3__3__1__1__  1__.-6_-6__
    4_.3  2__2__2__5__  3__0___
    3_.3  3__3__3__3__  3__.1_1__
    4_.3  2__2__2__5__  3__0___
    4_3_  2__5__4#__6__  5___2__
    -7_1_  2__5__7__.6_  5___0__
    5_.4  3__3__5__3__  4__.3_4__
    4_.3  2__2__2__1_2_  3__0__
    5__3__  6___.4_2_  1___3__2__  1___0__ //] >>
FCT[Vaterlands -, Heimat - Lied]
